X: 11
T: Sliabh Russell
Z: NfldWhistler
S: https://thesession.org/tunes/335#setting48125
R: jig
M: 6/8
L: 1/8
K: Ador
|:~e2A Bcd|eaf ged|edB cBA|BAG AB/c/d|
eAA Bcd|eaf ged|edB cBA|1 BAG ~A2d:|2 BAG AB/c/d||
|:eaa efg|a2f g2d|eaa efg|a2f g2f|
eaa efg|agf ged|edB cBA|1 BAG AB/c/d:|2 BAG ~A2d||

